src/lib/packages/icons/src/assets/filled/desktop.svg

<svg xmlns="http://www.w3.org/2000/svg" width="24" height="24" fill="none"><path fill="currentColor" d="M21 14c0 2-1 3-3 3h-4v3.25h2.5c.41 0 .75.34.75.75s-.34.75-.75.75h-9c-.41 0-.75-.34-.75-.75s.34-.75.75-.75H10V17H6c-2 0-3-1-3-3a.25.25 0 0 1 .25-.25h17.5A.25.25 0 0 1 21 14ZM18 3H6C4 3 3 4 3 6v6c0 .138.112.25.25.25h17.5A.25.25 0 0 0 21 12V6c0-2-1-3-3-3Z"/></svg>

<svg width="24" height="24" viewBox="0 0 24 24" fill="none" xmlns="http://www.w3.org/2000/svg">
<path d="M21 14C21 16 20 17 18 17H14V20.25H16.5C16.91 20.25 17.25 20.59 17.25 21C17.25 21.41 16.91 21.75 16.5 21.75H7.5C7.09 21.75 6.75 21.41 6.75 21C6.75 20.59 7.09 20.25 7.5 20.25H10V17H6C4 17 3 16 3 14C3 13.862 3.112 13.75 3.25 13.75H20.75C20.888 13.75 21 13.862 21 14ZM18 3H6C4 3 3 4 3 6V12C3 12.138 3.112 12.25 3.25 12.25H20.75C20.888 12.25 21 12.138 21 12V6C21 4 20 3 18 3Z" fill="currentColor"/>
</svg>
